static/assets/img/icons/theme/devices/keyboard.svg

<svg height="24" viewBox="0 0 24 24" width="24" xmlns="http://www.w3.org/2000/svg"><g fill="none" fill-rule="evenodd"><path d="m0 0h24v24h-24z" opacity="0"/><g fill="#000"><path d="m11.9486833 8.31622777-1.8973666-.63245554c.7647076-2.29412288 1.9913605-3.72521795 3.7061477-4.15391473.8928226-.22320566 2.2425356-1.66034691 2.2425356-2.5298575h2c0 1.79715607-1.9836203 4.02668149-3.7574644 4.4701425-.9518795.23796988-1.7252266 1.14020815-2.2938523 2.84608527z" fill-rule="nonzero" opacity=".3"/><path d="m3 7h18c1.1045695 0 2 .8954305 2 2v10c0 1.1045695-.8954305 2-2 2h-18c-1.1045695 0-2-.8954305-2-2v-10c0-1.1045695.8954305-2 2-2zm4.5 2c-.27614237 0-.5.22385763-.5.5v1c0 .2761424.22385763.5.5.5h1c.27614237 0 .5-.2238576.5-.5v-1c0-.27614237-.22385763-.5-.5-.5zm-4 0c-.27614237 0-.5.22385763-.5.5v1c0 .2761424.22385763.5.5.5h1c.27614237 0 .5-.2238576.5-.5v-1c0-.27614237-.22385763-.5-.5-.5zm2 4c-.27614237 0-.5.2238576-.5.5v1c0 .2761424.22385763.5.5.5h1c.27614237 0 .5-.2238576.5-.5v-1c0-.2761424-.22385763-.5-.5-.5zm4 0c-.27614237 0-.5.2238576-.5.5v1c0 .2761424.22385763.5.5.5h1c.2761424 0 .5-.2238576.5-.5v-1c0-.2761424-.2238576-.5-.5-.5zm4 0c-.2761424 0-.5.2238576-.5.5v1c0 .2761424.2238576.5.5.5h1c.2761424 0 .5-.2238576.5-.5v-1c0-.2761424-.2238576-.5-.5-.5zm4 0c-.2761424 0-.5.2238576-.5.5v1c0 .2761424.2238576.5.5.5h1c.2761424 0 .5-.2238576.5-.5v-1c0-.2761424-.2238576-.5-.5-.5zm-6-4c-.2761424 0-.5.22385763-.5.5v1c0 .2761424.2238576.5.5.5h1c.2761424 0 .5-.2238576.5-.5v-1c0-.27614237-.2238576-.5-.5-.5zm-6 8c-.27614237 0-.5.2238576-.5.5v1c0 .2761424.22385763.5.5.5h13c.2761424 0 .5-.2238576.5-.5v-1c0-.2761424-.2238576-.5-.5-.5zm10-8c-.2761424 0-.5.22385763-.5.5v1c0 .2761424.2238576.5.5.5h1c.2761424 0 .5-.2238576.5-.5v-1c0-.27614237-.2238576-.5-.5-.5zm4 0c-.2761424 0-.5.22385763-.5.5v1c0 .2761424.2238576.5.5.5h1c.2761424 0 .5-.2238576.5-.5v-1c0-.27614237-.2238576-.5-.5-.5z"/></g></g></svg>

<svg width="24px" height="24px" viewBox="0 0 24 24" version="1.1" xmlns="http://www.w3.org/2000/svg" xmlns:xlink="http://www.w3.org/1999/xlink">
    <title>Icon For Keyboard</title>
    <g stroke="none" stroke-width="1" fill="none" fill-rule="evenodd">
        <rect opacity="0" x="0" y="0" width="24" height="24"></rect>
        <path d="M11.9486833,8.31622777 L10.0513167,7.68377223 C10.8160243,5.38964935 12.0426772,3.95855428 13.7574644,3.5298575 C14.650287,3.30665184 16,1.86951059 16,1 L18,1 C18,2.79715607 16.0163797,5.02668149 14.2425356,5.4701425 C13.2906561,5.70811238 12.517309,6.61035065 11.9486833,8.31622777 Z" fill="#000000" fill-rule="nonzero" opacity="0.3"></path>
        <path d="M3,7 L21,7 C22.1045695,7 23,7.8954305 23,9 L23,19 C23,20.1045695 22.1045695,21 21,21 L3,21 C1.8954305,21 1,20.1045695 1,19 L1,9 C1,7.8954305 1.8954305,7 3,7 Z M7.5,9 C7.22385763,9 7,9.22385763 7,9.5 L7,10.5 C7,10.7761424 7.22385763,11 7.5,11 L8.5,11 C8.77614237,11 9,10.7761424 9,10.5 L9,9.5 C9,9.22385763 8.77614237,9 8.5,9 L7.5,9 Z M3.5,9 C3.22385763,9 3,9.22385763 3,9.5 L3,10.5 C3,10.7761424 3.22385763,11 3.5,11 L4.5,11 C4.77614237,11 5,10.7761424 5,10.5 L5,9.5 C5,9.22385763 4.77614237,9 4.5,9 L3.5,9 Z M5.5,13 C5.22385763,13 5,13.2238576 5,13.5 L5,14.5 C5,14.7761424 5.22385763,15 5.5,15 L6.5,15 C6.77614237,15 7,14.7761424 7,14.5 L7,13.5 C7,13.2238576 6.77614237,13 6.5,13 L5.5,13 Z M9.5,13 C9.22385763,13 9,13.2238576 9,13.5 L9,14.5 C9,14.7761424 9.22385763,15 9.5,15 L10.5,15 C10.7761424,15 11,14.7761424 11,14.5 L11,13.5 C11,13.2238576 10.7761424,13 10.5,13 L9.5,13 Z M13.5,13 C13.2238576,13 13,13.2238576 13,13.5 L13,14.5 C13,14.7761424 13.2238576,15 13.5,15 L14.5,15 C14.7761424,15 15,14.7761424 15,14.5 L15,13.5 C15,13.2238576 14.7761424,13 14.5,13 L13.5,13 Z M17.5,13 C17.2238576,13 17,13.2238576 17,13.5 L17,14.5 C17,14.7761424 17.2238576,15 17.5,15 L18.5,15 C18.7761424,15 19,14.7761424 19,14.5 L19,13.5 C19,13.2238576 18.7761424,13 18.5,13 L17.5,13 Z M11.5,9 C11.2238576,9 11,9.22385763 11,9.5 L11,10.5 C11,10.7761424 11.2238576,11 11.5,11 L12.5,11 C12.7761424,11 13,10.7761424 13,10.5 L13,9.5 C13,9.22385763 12.7761424,9 12.5,9 L11.5,9 Z M5.5,17 C5.22385763,17 5,17.2238576 5,17.5 L5,18.5 C5,18.7761424 5.22385763,19 5.5,19 L18.5,19 C18.7761424,19 19,18.7761424 19,18.5 L19,17.5 C19,17.2238576 18.7761424,17 18.5,17 L5.5,17 Z M15.5,9 C15.2238576,9 15,9.22385763 15,9.5 L15,10.5 C15,10.7761424 15.2238576,11 15.5,11 L16.5,11 C16.7761424,11 17,10.7761424 17,10.5 L17,9.5 C17,9.22385763 16.7761424,9 16.5,9 L15.5,9 Z M19.5,9 C19.2238576,9 19,9.22385763 19,9.5 L19,10.5 C19,10.7761424 19.2238576,11 19.5,11 L20.5,11 C20.7761424,11 21,10.7761424 21,10.5 L21,9.5 C21,9.22385763 20.7761424,9 20.5,9 L19.5,9 Z" fill="#000000"></path>
    </g>
</svg>
